X:98
T:Step Stately. (p)1651.PLFD.098
M:6/4
L:1/4
Q:3/4=80
S:Playford, Dancing Master,1st Ed.,1651.
O:England
H:1651.
Z:Chris Partington.
K:F
fedc>BA|BGGG>de/f/|g2ecfc|cAFF3:|
|:g2fe2d|df2f>gf/g/|e2dcfc|cAFF3:|
